packages/ffe-icons/icons/open/400/sm/copy_all.svg

<svg xmlns="http://www.w3.org/2000/svg" height="20" viewBox="0 -960 960 960" width="20"><path d="M360-240q-33 0-52.5-19.5T288-312v-480q0-33 19.5-52.5T360-864h384q33 0 52.5 19.5T816-792v480q0 33-19.5 52.5T744-240H360Zm0-72h384v-480H360v480Zm192-240ZM180.211-672Q165-672 154.5-682.289q-10.5-10.29-10.5-25.5Q144-723 154.289-733.5q10.29-10.5 25.5-10.5Q195-744 205.5-733.711q10.5 10.29 10.5 25.5Q216-693 205.711-682.5q-10.29 10.5-25.5 10.5Zm0 144Q165-528 154.5-538.289q-10.5-10.29-10.5-25.5Q144-579 154.289-589.5q10.29-10.5 25.5-10.5Q195-600 205.5-589.711q10.5 10.29 10.5 25.5Q216-549 205.711-538.5q-10.29 10.5-25.5 10.5Zm0 144Q165-384 154.5-394.289q-10.5-10.29-10.5-25.5Q144-435 154.289-445.5q10.29-10.5 25.5-10.5Q195-456 205.5-445.711q10.5 10.29 10.5 25.5Q216-405 205.711-394.5q-10.29 10.5-25.5 10.5Zm0 144Q165-240 154.5-250.289q-10.5-10.29-10.5-25.5Q144-291 154.289-301.5q10.29-10.5 25.5-10.5Q195-312 205.5-301.711q10.5 10.29 10.5 25.5Q216-261 205.711-250.5q-10.29 10.5-25.5 10.5Zm0 144Q165-96 154.5-106.289q-10.5-10.29-10.5-25.5Q144-147 154.289-157.5q10.29-10.5 25.5-10.5Q195-168 205.5-157.711q10.5 10.29 10.5 25.5Q216-117 205.711-106.5q-10.29 10.5-25.5 10.5Zm144 0Q309-96 298.5-106.289q-10.5-10.29-10.5-25.5Q288-147 298.289-157.5q10.29-10.5 25.5-10.5Q339-168 349.5-157.711q10.5 10.29 10.5 25.5Q360-117 349.711-106.5q-10.29 10.5-25.5 10.5Zm144 0Q453-96 442.5-106.289q-10.5-10.29-10.5-25.5Q432-147 442.289-157.5q10.29-10.5 25.5-10.5Q483-168 493.5-157.711q10.5 10.29 10.5 25.5Q504-117 493.711-106.5q-10.29 10.5-25.5 10.5Zm144 0Q597-96 586.5-106.289q-10.5-10.29-10.5-25.5Q576-147 586.289-157.5q10.29-10.5 25.5-10.5Q627-168 637.5-157.711q10.5 10.29 10.5 25.5Q648-117 637.711-106.5q-10.29 10.5-25.5 10.5Z"/></svg>

<svg xmlns="http://www.w3.org/2000/svg" height="20" viewBox="0 -960 960 960" width="20"><path d="M360-240q-33 0-52.5-19.5T288-312v-480q0-33 19.5-52.5T360-864h384q33 0 52.5 19.5T816-792v480q0 33-19.5 52.5T744-240H360Zm0-72h384v-480H360v480Zm192-240ZM180.21-672q-15.21 0-25.71-10.29t-10.5-25.5q0-15.21 10.29-25.71t25.5-10.5q15.21 0 25.71 10.29t10.5 25.5q0 15.21-10.29 25.71t-25.5 10.5Zm0 144q-15.21 0-25.71-10.29t-10.5-25.5q0-15.21 10.29-25.71t25.5-10.5q15.21 0 25.71 10.29t10.5 25.5q0 15.21-10.29 25.71t-25.5 10.5Zm0 144q-15.21 0-25.71-10.29t-10.5-25.5q0-15.21 10.29-25.71t25.5-10.5q15.21 0 25.71 10.29t10.5 25.5q0 15.21-10.29 25.71t-25.5 10.5Zm0 144q-15.21 0-25.71-10.29t-10.5-25.5q0-15.21 10.29-25.71t25.5-10.5q15.21 0 25.71 10.29t10.5 25.5q0 15.21-10.29 25.71t-25.5 10.5Zm0 144Q165-96 154.5-106.29t-10.5-25.5q0-15.21 10.29-25.71t25.5-10.5q15.21 0 25.71 10.29t10.5 25.5q0 15.21-10.29 25.71T180.21-96Zm144 0Q309-96 298.5-106.29t-10.5-25.5q0-15.21 10.29-25.71t25.5-10.5q15.21 0 25.71 10.29t10.5 25.5q0 15.21-10.29 25.71T324.21-96Zm144 0Q453-96 442.5-106.29t-10.5-25.5q0-15.21 10.29-25.71t25.5-10.5q15.21 0 25.71 10.29t10.5 25.5q0 15.21-10.29 25.71T468.21-96Zm144 0Q597-96 586.5-106.29t-10.5-25.5q0-15.21 10.29-25.71t25.5-10.5q15.21 0 25.71 10.29t10.5 25.5q0 15.21-10.29 25.71T612.21-96Z"/></svg>
